fe/src/assets/icons/arquivosMusica.svg

<svg width="428" height="512" viewBox="0 0 428 512" fill="none" xmlns="http://www.w3.org/2000/svg">
<path d="M414.832 106.667H320.667V12.5013L414.832 106.667ZM427.333 149.333V512H0.666626V64C0.666626 47.0261 7.40947 30.7475 19.4118 18.7452C31.4141 6.74284 47.6928 0 64.6666 0L278 0V149.333H427.333ZM278 213.333H235.333C224.017 213.333 213.165 217.829 205.163 225.83C197.162 233.832 192.667 244.684 192.667 256V321.067C189.154 320.364 185.582 320.007 182 320C171.452 320 161.14 323.128 152.37 328.988C143.599 334.849 136.763 343.178 132.726 352.924C128.69 362.669 127.634 373.393 129.691 383.738C131.749 394.084 136.829 403.587 144.288 411.046C151.746 418.505 161.249 423.584 171.595 425.642C181.941 427.7 192.664 426.644 202.41 422.607C212.155 418.57 220.485 411.734 226.345 402.964C232.205 394.193 235.333 383.882 235.333 373.333V256H278V213.333Z" fill="#7C7C7C"/>
</svg>

<svg width="428" height="512" fill="none" xmlns="http://www.w3.org/2000/svg"><path d="M414.832 106.667h-94.165V12.501l94.165 94.166zm12.501 42.666V512H.667V64a64 64 0 0 1 64-64H278v149.333h149.333zm-149.333 64h-42.667A42.67 42.67 0 0 0 192.667 256v65.067A54.903 54.903 0 0 0 182 320a53.334 53.334 0 1 0 53.333 53.333V256H278v-42.667z" fill="#7C7C7C"/></svg>
